**harm	**harte	**timestamp	**phrase	**leadinstrument	**kern
*M4/4	*M4/4	*	*	*	*
*D:	*D:	*	*	*	*D:
1r;	N	0	.	r	1r;
=1	=1	=1	=1	=1	=1
*>A_intro	*>A_intro	*>A_intro	*>A_intro	*>A_intro	*>A_intro
1I	D:maj	0.479	newline	guitar	1D 1f# 1a
=2	=2	=2	=2	=2	=2
1I	D:maj	3.405	.	guitar	1D 1f# 1a
=3	=3	=3	=3	=3	=3
1I	D:maj	6.331	.	guitar	1D 1f# 1a
=4	=4	=4	=4	=4	=4
*>B_verse	*>B_verse	*>B_verse	*>B_verse	*>B_verse	*>B_verse
1I	D:maj	9.257	newline	voice	1D 1f# 1a
=5	=5	=5	=5	=5	=5
1I	D:maj	12.147	.	voice	1D 1f# 1a
=6	=6	=6	=6	=6	=6
1IV	G:maj	15.037	.	voice	1G 1b 1dd
=7	=7	=7	=7	=7	=7
1I	D:maj	17.928	.	voice	1D 1f# 1a
=8	=8	=8	=8	=8	=8
2IV	G:maj	20.818	.	voice	2G 2b 2dd
2V	A:maj	22.263	.	voice	2A 2cc# 2ee
=9	=9	=9	=9	=9	=9
*M2/4	*M2/4	*M2/4	*M2/4	*M2/4	*M2/4
2I	D:maj	23.708	.	voice	2D 2f# 2a
=10	=10	=10	=10	=10	=10
*M4/4	*M4/4	*M4/4	*M4/4	*M4/4	*M4/4
1IV	G:maj	25.153	.	voice	1G 1b 1dd
=11	=11	=11	=11	=11	=11
1IV	G:maj	28.044	.	voice	1G 1b 1dd
=12	=12	=12	=12	=12	=12
1V	A:maj	30.934	.	voice	1A 1cc# 1ee
=13	=13	=13	=13	=13	=13
*>B_verse	*>B_verse	*>B_verse	*>B_verse	*>B_verse	*>B_verse
1I	D:maj	33.824	newline	voice	1D 1f# 1a
=14	=14	=14	=14	=14	=14
1I	D:maj	36.698	.	voice	1D 1f# 1a
=15	=15	=15	=15	=15	=15
1IV	G:maj	39.572	.	voice	1G 1b 1dd
=16	=16	=16	=16	=16	=16
1I	D:maj	42.446	.	voice	1D 1f# 1a
=17	=17	=17	=17	=17	=17
2IV	G:maj	45.32	.	voice	2G 2b 2dd
2V	A:maj	46.756	.	voice	2A 2cc# 2ee
=18	=18	=18	=18	=18	=18
*M2/4	*M2/4	*M2/4	*M2/4	*M2/4	*M2/4
2I	D:maj	48.193	.	voice	2D 2f# 2a
=19	=19	=19	=19	=19	=19
*M4/4	*M4/4	*M4/4	*M4/4	*M4/4	*M4/4
1IV	G:maj	49.63	.	voice	1G 1b 1dd
=20	=20	=20	=20	=20	=20
2IV	G:maj	52.504	.	voice	2G 2b 2dd
2V	A:maj	53.941	.	voice	2A 2cc# 2ee
=21	=21	=21	=21	=21	=21
1I	D:maj	55.378	.	voice	1D 1f# 1a
=22	=22	=22	=22	=22	=22
*>B_verse	*>B_verse	*>B_verse	*>B_verse	*>B_verse	*>B_verse
1I	D:maj	58.252	newline	voice	1D 1f# 1a
=23	=23	=23	=23	=23	=23
2.I	D:maj	61.133	.	voice	2D 2f# 2a
4V	A:maj	63.294	.	voice	4A 4cc# 4ee
=24	=24	=24	=24	=24	=24
1IV	G:maj	64.014	.	voice	1G 1b 1dd
=25	=25	=25	=25	=25	=25
1I	D:maj	66.896	.	voice	1D 1f# 1a
=26	=26	=26	=26	=26	=26
2IV	G:maj	69.777	.	voice	2G 2b 2dd
2V	A:maj	71.217	.	voice	2A 2cc# 2ee
=27	=27	=27	=27	=27	=27
*M2/4	*M2/4	*M2/4	*M2/4	*M2/4	*M2/4
2I	D:maj	72.658	.	voice	2D 2f# 2a
=28	=28	=28	=28	=28	=28
*M4/4	*M4/4	*M4/4	*M4/4	*M4/4	*M4/4
1IV	G:maj	74.099	.	voice	1G 1b 1dd
=29	=29	=29	=29	=29	=29
2IV	G:maj	76.98	.	voice	2G 2b 2dd
2V	A:maj	78.421	.	voice	2A 2cc# 2ee
=30	=30	=30	=30	=30	=30
1I	D:maj	79.861	.	voice	1D 1f# 1a
=31	=31	=31	=31	=31	=31
*>D_transition	*>D_transition	*>D_transition	*>D_transition	*>D_transition	*>D_transition
*M2/4	*M2/4	*M2/4	*M2/4	*M2/4	*M2/4
2I	D:maj	82.743	newline	voice	2D 2f# 2a
=32	=32	=32	=32	=32	=32
*>C_chorus	*>C_chorus	*>C_chorus	*>C_chorus	*>C_chorus	*>C_chorus
*M4/4	*M4/4	*M4/4	*M4/4	*M4/4	*M4/4
1IV	G:maj(9)	84.252	newline	voice	1G 1b 1dd
=33	=33	=33	=33	=33	=33
2V	A:sus4(b7)	87.162	.	voice	2A 2cc# 2ee
2V	A:maj	88.617	.	voice	2A 2cc# 2ee
=34	=34	=34	=34	=34	=34
2I	D:sus4	90.072	.	voice	2D 2f# 2a
2I	D:maj	91.527	.	voice	2D 2f# 2a
=35	=35	=35	=35	=35	=35
1IV	G:maj	92.982	.	voice	1G 1b 1dd
=36	=36	=36	=36	=36	=36
2ii7	E:min11	95.892	.	voice	2E 2g 2b 2dd
2ii7	E:min7	97.347	.	voice	2E 2g 2b 2dd
=37	=37	=37	=37	=37	=37
2V	A:sus4(b7)	98.802	.	voice	2A 2cc# 2ee
2V	A:maj	100.257	.	voice	2A 2cc# 2ee
=38	=38	=38	=38	=38	=38
1I	D:maj	101.712	.	voice	1D 1f# 1a
=39	=39	=39	=39	=39	=39
1I	D:maj	104.622	.	voice	1D 1f# 1a
=40	=40	=40	=40	=40	=40
1IV	G:maj(9)	107.532	newline	voice	1G 1b 1dd
=41	=41	=41	=41	=41	=41
2V	A:sus4(b7)	110.455	.	voice	2A 2cc# 2ee
2V	A:maj	111.917	.	voice	2A 2cc# 2ee
=42	=42	=42	=42	=42	=42
2I	D:sus4	113.379	.	voice	2D 2f# 2a
2I	D:maj	114.841	.	voice	2D 2f# 2a
=43	=43	=43	=43	=43	=43
1IV	G:maj	116.302	.	voice	1G 1b 1dd
=44	=44	=44	=44	=44	=44
2ii7	E:min11	119.226	.	voice	2E 2g 2b 2dd
2ii7	E:min7	120.688	.	voice	2E 2g 2b 2dd
=45	=45	=45	=45	=45	=45
2V	A:sus4(b7)	122.149	.	voice	2A 2cc# 2ee
2V	A:maj	123.611	.	voice	2A 2cc# 2ee
=46	=46	=46	=46	=46	=46
1I	D:maj	125.073	.	voice	1D 1f# 1a
=47	=47	=47	=47	=47	=47
1I	D:maj	127.996	.	voice	1D 1f# 1a
=48	=48	=48	=48	=48	=48
*>B_verse	*>B_verse	*>B_verse	*>B_verse	*>B_verse	*>B_verse
1I	D:maj	130.92	newline	voice	1D 1f# 1a
=49	=49	=49	=49	=49	=49
1I	D:maj	133.792	.	voice	1D 1f# 1a
=50	=50	=50	=50	=50	=50
1IV	G:maj	136.664	.	voice	1G 1b 1dd
=51	=51	=51	=51	=51	=51
1I	D:maj	139.536	.	voice	1D 1f# 1a
=52	=52	=52	=52	=52	=52
2IV	G:maj	142.409	.	voice	2G 2b 2dd
2V	A:maj	143.845	.	voice	2A 2cc# 2ee
=53	=53	=53	=53	=53	=53
*M2/4	*M2/4	*M2/4	*M2/4	*M2/4	*M2/4
2I	D:maj	145.281	.	voice	2D 2f# 2a
=54	=54	=54	=54	=54	=54
*M4/4	*M4/4	*M4/4	*M4/4	*M4/4	*M4/4
1IV	G:maj	146.717	.	voice	1G 1b 1dd
=55	=55	=55	=55	=55	=55
2IV	G:maj	149.589	.	voice	2G 2b 2dd
2V	A:maj	151.025	.	voice	2A 2cc# 2ee
=56	=56	=56	=56	=56	=56
1I	D:maj	152.461	.	voice	1D 1f# 1a
=57	=57	=57	=57	=57	=57
*>B_verse	*>B_verse	*>B_verse	*>B_verse	*>B_verse	*>B_verse
1I	D:maj	155.333	newline	voice	1D 1f# 1a
=58	=58	=58	=58	=58	=58
1I	D:maj	158.222	.	voice	1D 1f# 1a
=59	=59	=59	=59	=59	=59
1IV	G:maj	161.11	.	voice	1G 1b 1dd
=60	=60	=60	=60	=60	=60
1I	D:maj	163.998	.	voice	1D 1f# 1a
=61	=61	=61	=61	=61	=61
2IV	G:maj	166.887	.	voice	2G 2b 2dd
2V	A:maj	168.331	.	voice	2A 2cc# 2ee
=62	=62	=62	=62	=62	=62
*M2/4	*M2/4	*M2/4	*M2/4	*M2/4	*M2/4
2I	D:maj	169.775	.	voice	2D 2f# 2a
=63	=63	=63	=63	=63	=63
*M4/4	*M4/4	*M4/4	*M4/4	*M4/4	*M4/4
1IV	G:maj	171.219	.	voice	1G 1b 1dd
=64	=64	=64	=64	=64	=64
2IV	G:maj	174.107	.	voice	2G 2b 2dd
2V	A:maj	175.551	.	voice	2A 2cc# 2ee
=65	=65	=65	=65	=65	=65
1I	D:maj	176.995	.	voice	1D 1f# 1a
=66	=66	=66	=66	=66	=66
*>D_transition	*>D_transition	*>D_transition	*>D_transition	*>D_transition	*>D_transition
*M2/4	*M2/4	*M2/4	*M2/4	*M2/4	*M2/4
2I	D:maj	179.884	newline	voice	2D 2f# 2a
=67	=67	=67	=67	=67	=67
*>C_chorus	*>C_chorus	*>C_chorus	*>C_chorus	*>C_chorus	*>C_chorus
*M4/4	*M4/4	*M4/4	*M4/4	*M4/4	*M4/4
1IV	G:maj(9)	181.336	newline	voice	1G 1b 1dd
=68	=68	=68	=68	=68	=68
2V	A:sus4(b7)	184.239	.	voice	2A 2cc# 2ee
2V	A:maj	185.69	.	voice	2A 2cc# 2ee
=69	=69	=69	=69	=69	=69
2I	D:sus4	187.141	.	voice	2D 2f# 2a
2I	D:maj	188.592	.	voice	2D 2f# 2a
=70	=70	=70	=70	=70	=70
1IV	G:maj	190.043	.	voice	1G 1b 1dd
=71	=71	=71	=71	=71	=71
2ii7	E:min11	192.946	.	voice	2E 2g 2b 2dd
2ii7	E:min7	194.397	.	voice	2E 2g 2b 2dd
=72	=72	=72	=72	=72	=72
2V	A:sus4(b7)	195.848	.	voice	2A 2cc# 2ee
2V	A:maj	197.299	.	voice	2A 2cc# 2ee
=73	=73	=73	=73	=73	=73
1I	D:maj	198.75	.	voice	1D 1f# 1a
=74	=74	=74	=74	=74	=74
1I	D:maj	201.652	.	voice	1D 1f# 1a
=75	=75	=75	=75	=75	=75
1IV	G:maj(9)	204.555	newline	voice	1G 1b 1dd
=76	=76	=76	=76	=76	=76
2V	A:sus4(b7)	207.489	.	voice	2A 2cc# 2ee
2V	A:maj	208.957	.	voice	2A 2cc# 2ee
=77	=77	=77	=77	=77	=77
2I	D:sus4	210.424	.	voice	2D 2f# 2a
2I	D:maj	211.892	.	voice	2D 2f# 2a
=78	=78	=78	=78	=78	=78
1IV	G:maj	213.359	.	voice	1G 1b 1dd
=79	=79	=79	=79	=79	=79
2ii7	E:min11	216.294	.	voice	2E 2g 2b 2dd
2ii7	E:min7	217.761	.	voice	2E 2g 2b 2dd
=80	=80	=80	=80	=80	=80
1V	A:sus4(b7)	219.229	.	voice	1A 1cc# 1ee
=81	=81	=81	=81	=81	=81
*>A_outro	*>A_outro	*>A_outro	*>A_outro	*>A_outro	*>A_outro
1I	D:maj	222.164	newline	voice	1D 1f# 1a
=82	=82	=82	=82	=82	=82
1I	D:maj	225.079	.	voice	1D 1f# 1a
=83	=83	=83	=83	=83	=83
1I	D:maj	227.994	.	voice	1D 1f# 1a
1r;	N	237.469	.	r	1r;
1r;	N	238.472	.	r	1r;
*-	*-	*-	*-	*-	*-
!!!OTL: Scarlet Fever
!!!COC: Kenny Rogers
!!!BillboardChartDate: 1983/08/20
!!!BillboardPeak: 94
!!!BillboardWeeksOnChart: 2
!!!SampleTargetRank: 95
!!!SampleActualRank: 94
!!!SampleID#: 0372
!!!RDF**harmony: **recip + pitch class of root + harmonic quality
!!!RDF**harte: Chris Harte's syntax, used by MIREX
!!!RDF**phrase: newline = linebreak in original McGill transcription
!!!RDF**timestamp: McGill audio timestamp in seconds
!!!RDF**leadinstrument: original McGill primary instrumentation annotation
!!!RDT: 2017/01/12/
!!!ENC: Nathaniel Condit-Schultz
!!!EST: Awating manual error checking and editing.
